X:83
%%etbk:tnset id:29,pos:1,rep:3x,ant:
%%etbk:wsite http://www.thesession.org/tunes/display/539
%%etbk:skill ?
%%etbk:pldat 2013-11-11T18:17,2013-11-10T15:10
T: Farewell To Milltown
Z: Piano Box Version by Martin Fleischmann
H: Created 2013-02-19 /  Last Modified 2013-02-19
M: 4/4
L: 1/8
R: reel
K: Gdor
|:!1!D!3!GG!2!F !3!G!2!G!3!GA|!5!B!3!GGF GF!1!D!2!E|!3!F2!1!C!3!F !2!D!3!F!1!C!2!D|!3!FGAF !4!G!3!F!1!D!2!C|
!1!D!3!GGF G3A|BGGF GF!1!D!2!E|!1!F2!4!cF !5!dF!4!cF|!2!AdcA !1!G4:|
|:!2!d!4!g!3!g!2!f !3!ggga|bggf gfde|!3!fffg fede|fgaf gf!1!d!2!c|
!1!d!3!ggf g3a|bggf gfde|!3!f3!1!d !5!d!4!c!2!A!1!G|!1!F!5!d!4!c!2!A !1!G4:|
